X:1
T:Quadrille
S:Mrs Sarah Armstrong, Derry, Pennsylvania
H:Noted by Samuel Bayard from Mrs Sarah Armstrong, (near) Derry,
Pennsylvania, November 18, 1943.
S:John Adams <johnadams@imailbox.com> tradtunes 2010-12-15
B:Samuel Bayard's Hill Country Tunes P37 (tune 30)
M:6/8
L:1/8
K:D
(A | A2) A F2A | def edB | A2A F2G | ABA GFE |
D2D F2A | def edB | A2A F2G | ABc "Fine"d2 || e
f2d A2d | fef agf | e2c A2c | ece a2g |
f2d A2d fef agf | efg a2c | d3 z dcB |]
